src/scalable/devices/network-firewall.svg

<?xml version="1.0" encoding="UTF-8" standalone="no"?>
<svg
   xmlns:dc="http://purl.org/dc/elements/1.1/"
   xmlns:cc="http://creativecommons.org/ns#"
   xmlns:rdf="http://www.w3.org/1999/02/22-rdf-syntax-ns#"
   xmlns:svg="http://www.w3.org/2000/svg"
   xmlns="http://www.w3.org/2000/svg"
   xmlns:sodipodi="http://sodipodi.sourceforge.net/DTD/sodipodi-0.dtd"
   xmlns:inkscape="http://www.inkscape.org/namespaces/inkscape"
   width="64"
   height="64"
   version="1"
   id="svg16"
   sodipodi:docname="network-firewall.svg"
   inkscape:version="0.92.3 (2405546, 2018-03-11)">
  <metadata
     id="metadata22">
    <rdf:RDF>
      <cc:Work
         rdf:about="">
        <dc:format>image/svg+xml</dc:format>
        <dc:type
           rdf:resource="http://purl.org/dc/dcmitype/StillImage" />
        <dc:title></dc:title>
      </cc:Work>
    </rdf:RDF>
  </metadata>
  <defs
     id="defs20" />
  <sodipodi:namedview
     pagecolor="#ffffff"
     bordercolor="#666666"
     borderopacity="1"
     objecttolerance="10"
     gridtolerance="10"
     guidetolerance="10"
     inkscape:pageopacity="0"
     inkscape:pageshadow="2"
     inkscape:window-width="685"
     inkscape:window-height="469"
     id="namedview18"
     showgrid="true"
     inkscape:snap-bbox="true"
     inkscape:bbox-nodes="true"
     inkscape:zoom="3.6875"
     inkscape:cx="10.26338"
     inkscape:cy="33.61598"
     inkscape:window-x="819"
     inkscape:window-y="360"
     inkscape:window-maximized="0"
     inkscape:current-layer="svg16">
    <inkscape:grid
       type="xygrid"
       id="grid839" />
  </sodipodi:namedview>
  <circle
     style="opacity:1;fill:#ba3c37;fill-opacity:1;stroke:none;stroke-width:1.52345753;stroke-linecap:round;stroke-linejoin:round;stroke-miterlimit:4;stroke-dasharray:none;stroke-opacity:0.05882353;paint-order:markers stroke fill"
     id="path829"
     cx="32"
     cy="32"
     r="26" />
  <path
     style="opacity:0.1;fill:#000000;fill-opacity:1;stroke:none;stroke-width:2;stroke-linecap:round;stroke-linejoin:miter;stroke-miterlimit:4;stroke-dasharray:none;stroke-opacity:0.05882353;paint-order:markers stroke fill"
     d="M 32 6 A 26 26 0 0 0 22 8.0253906 L 22 14 L 13.279297 14 A 26 26 0 0 0 11.542969 16 L 13 16 L 13 22 L 8.0078125 22 A 26 26 0 0 0 7.2773438 24 L 22 24 L 22 31 L 6.0507812 31 A 26 26 0 0 0 6 32 A 26 26 0 0 0 6.0351562 33 L 13 33 L 13 40 L 7.2949219 40 A 26 26 0 0 0 8.0253906 42 L 22 42 L 22 48 L 11.517578 48 A 26 26 0 0 0 15 51.654297 L 15 50 L 31 50 L 31 56 L 22.019531 56 A 26 26 0 0 0 32 58 A 26 26 0 0 0 41.941406 56 L 33 56 L 33 50 L 49 50 L 49 51.630859 A 26 26 0 0 0 52.457031 48 L 42 48 L 42 42 L 55.992188 42 A 26 26 0 0 0 56.722656 40 L 51 40 L 51 33 L 57.949219 33 A 26 26 0 0 0 58 32 A 26 26 0 0 0 57.964844 31 L 42 31 L 42 24 L 56.705078 24 A 26 26 0 0 0 55.974609 22 L 51 22 L 51 16 L 52.482422 16 A 26 26 0 0 0 50.751953 14 L 42 14 L 42 8.0078125 A 26 26 0 0 0 32 6 z M 24 8 L 40 8 L 40 14 L 24 14 L 24 8 z M 15 16 L 31 16 L 31 22 L 15 22 L 15 16 z M 33 16 L 49 16 L 49 22 L 33 22 L 33 16 z M 24 24 L 40 24 L 40 31 L 24 31 L 24 24 z M 15 33 L 31 33 L 31 40 L 15 40 L 15 33 z M 33 33 L 49 33 L 49 40 L 33 40 L 33 33 z M 24 42 L 40 42 L 40 48 L 24 48 L 24 42 z "
     id="rect4564" />
  <g
     id="g4562"
     transform="matrix(1.7973579,0,0,1.7973579,-28.110548,-22.708323)"
     style="stroke-width:0.55637228">
    <path
       inkscape:connector-curvature="0"
       id="path4190-3"
       d="m 32.11819,22.063191 c -0.06972,2.904862 -0.987748,5.45031 -2.753906,7.634766 -0.06972,-0.85984 -0.336002,-1.720239 -0.800781,-2.580078 -0.04648,0.650689 -0.308756,1.517041 -0.785157,2.597656 -0.476405,1.080615 -0.772478,1.863547 -0.888672,2.351562 -0.255627,1.231664 -0.110573,2.312633 0.435547,3.242188 0.546121,0.929555 1.621128,1.847588 3.22461,2.753906 2.425686,0.945027 3.362158,0.989922 5.36914,0 1.138718,-0.650688 2.044836,-1.366021 2.71875,-2.144531 0.673917,-0.77851 1.10314,-1.533605 1.289063,-2.265625 0.185922,-0.732018 0.23759,-1.487116 0.15625,-2.265625 -0.08134,-0.77851 -0.266159,-1.481925 -0.556641,-2.109375 -0.290479,-0.627451 -0.622317,-1.219612 -0.99414,-1.777344 -0.371823,-0.557735 -0.707661,-0.998874 -1.009766,-1.324219 -0.302105,-0.325343 -0.54651,-0.557832 -0.732422,-0.697265 0.162671,0.441538 0.220298,0.91843 0.173828,1.429687 -0.04648,0.511255 -0.161747,0.97623 -0.347656,1.394531 -0.06972,-0.697169 -0.27436,-1.394631 -0.611328,-2.091796 -0.336971,-0.697168 -0.696643,-1.273398 -1.080078,-1.726563 -0.383438,-0.453164 -0.824577,-0.888353 -1.324219,-1.306641 -0.499643,-0.418287 -0.843385,-0.690537 -1.029297,-0.818359 -0.185908,-0.127819 -0.336929,-0.22716 -0.453125,-0.296875 z"
       style="color:#000000;clip-rule:nonzero;display:inline;overflow:visible;visibility:visible;opacity:1;isolation:auto;mix-blend-mode:normal;color-interpolation:sRGB;color-interpolation-filters:linearRGB;solid-color:#000000;solid-opacity:1;fill:#ffd33f;fill-opacity:1;fill-rule:nonzero;stroke:none;stroke-width:0.55637228;stroke-linecap:butt;stroke-linejoin:miter;stroke-miterlimit:4;stroke-dasharray:none;stroke-dashoffset:0;stroke-opacity:1;marker:none;color-rendering:auto;image-rendering:auto;shape-rendering:auto;text-rendering:auto;enable-background:accumulate" />
    <path
       inkscape:connector-curvature="0"
       id="path881"
       d="m 35.918306,38.06319 c 0.766883,-1.533769 0.917936,-3.189543 0.453157,-4.967323 C 35.906684,31.318084 34.988747,29.952795 33.617653,29 c 0.116194,0.511257 0.05229,1.35367 -0.191728,2.527241 -0.244016,1.17357 -0.633265,2.062461 -1.167748,2.666674 0.09296,-0.743647 0.116197,-1.34786 0.06972,-1.812639 -0.04648,-0.464776 -0.116197,-0.813358 -0.20915,-1.045747 l -0.17429,-0.313724 c -0.139434,0.836599 -0.499637,1.673199 -1.08061,2.509798 -0.302105,0.441541 -0.528687,0.848222 -0.679747,1.220043 -0.151059,0.371823 -0.209157,0.848221 -0.174294,1.429194 0.03487,0.580972 0.214965,1.208422 0.540296,1.882351 0,0 0.918831,0.75 1.942922,0.75 2.482588,0 2.59525,-0.275689 3.425282,-0.750001 z"
       style="color:#000000;clip-rule:nonzero;display:inline;overflow:visible;visibility:visible;opacity:1;isolation:auto;mix-blend-mode:normal;color-interpolation:sRGB;color-interpolation-filters:linearRGB;solid-color:#000000;solid-opacity:1;fill:#fff3cb;fill-opacity:1;fill-rule:nonzero;stroke:none;stroke-width:0.55637228;stroke-linecap:butt;stroke-linejoin:miter;stroke-miterlimit:4;stroke-dasharray:none;stroke-dashoffset:0;stroke-opacity:1;marker:none;color-rendering:auto;image-rendering:auto;shape-rendering:auto;text-rendering:auto;enable-background:accumulate" />
  </g>
</svg>

<svg xmlns="http://www.w3.org/2000/svg" width="64" height="64" version="1"><circle cx="32" cy="32" r="26" fill="#ba3c37" paint-order="markers stroke fill"/><path d="M32 6a26 26 0 0 0-10 2.025V14h-8.72a26 26 0 0 0-1.737 2H13v6H8.008a26 26 0 0 0-.73 2H22v7H6.05A26 26 0 0 0 6 32a26 26 0 0 0 .035 1H13v7H7.295a26 26 0 0 0 .73 2H22v6H11.518A26 26 0 0 0 15 51.654V50h16v6h-8.98A26 26 0 0 0 32 58a26 26 0 0 0 9.941-2H33v-6h16v1.63A26 26 0 0 0 52.457 48H42v-6h13.992a26 26 0 0 0 .73-2H51v-7h6.95a26 26 0 0 0 .05-1 26 26 0 0 0-.035-1H42v-7h14.705a26 26 0 0 0-.73-2H51v-6h1.482a26 26 0 0 0-1.73-2H42V8.008A26 26 0 0 0 32 6zm-8 2h16v6H24V8zm-9 8h16v6H15v-6zm18 0h16v6H33v-6zm-9 8h16v7H24v-7zm-9 9h16v7H15v-7zm18 0h16v7H33v-7zm-9 9h16v6H24v-6z" opacity=".1" paint-order="markers stroke fill"/><g stroke-width=".556" color="#000"><path d="M29.617 16.947c-.125 5.221-1.775 9.796-4.95 13.723-.125-1.546-.603-3.092-1.439-4.638-.083 1.17-.555 2.727-1.41 4.67-.857 1.941-1.39 3.349-1.598 4.226-.46 2.213-.199 4.156.783 5.827.981 1.67 2.913 3.32 5.795 4.95 4.36 1.698 6.043 1.78 9.65 0 2.047-1.17 3.676-2.455 4.887-3.855 1.212-1.399 1.983-2.756 2.317-4.072.334-1.315.427-2.673.281-4.072-.146-1.4-.478-2.663-1-3.791a23.692 23.692 0 0 0-1.787-3.195c-.669-1.002-1.272-1.795-1.815-2.38-.543-.585-.982-1.002-1.317-1.253.293.794.396 1.65.313 2.57-.084.918-.29 1.754-.625 2.506-.125-1.253-.493-2.507-1.099-3.76-.605-1.253-1.252-2.288-1.941-3.103a19.505 19.505 0 0 0-2.38-2.348c-.898-.752-1.516-1.242-1.85-1.471a16.65 16.65 0 0 0-.815-.534z" style="isolation:auto;mix-blend-mode:normal;solid-color:#000;solid-opacity:1;marker:none" overflow="visible" fill="#ffd33f"/><path d="M36.448 45.705c1.378-2.757 1.65-5.733.814-8.928-.835-3.196-2.485-5.65-4.95-7.362.21.919.094 2.433-.344 4.542-.439 2.11-1.138 3.707-2.1 4.793.168-1.336.21-2.422.126-3.258-.083-.835-.209-1.461-.376-1.88l-.313-.563c-.25 1.504-.898 3.007-1.942 4.511-.543.794-.95 1.525-1.222 2.193-.271.668-.376 1.524-.313 2.569.062 1.044.386 2.172.97 3.383 0 0 1.652 1.348 3.493 1.348 4.462 0 4.665-.496 6.157-1.348z" style="isolation:auto;mix-blend-mode:normal;solid-color:#000;solid-opacity:1;marker:none" overflow="visible" fill="#fff3cb"/></g></svg>
